X:1
T:Chester (Billings), LM
T:Chester (Billings), LM
T:William Billings (1746-1800)
T:Public Domain Courtesy of the Cyber Hymnal™
C:William Billings (1746-1800)
Z:Public Domain
Z:Courtesy of the Cyber Hymnal™
%%score ( 1 2 ) ( 3 4 )
L:1/8
M:4/4
K:F
V:1 treble 
V:2 treble 
V:3 bass 
V:4 bass 
V:1
 [Fc]4 [Fd]2 [Ge]2 | [Af]4 [Ac]4 | (d2 f2) (e2 d2) | [Ec]8 | [Fc]4 [Fc]2 [Ac]2 | %5
 (c2 d2) (cB) A2 x2 | (B2 A2) ([EG]2 F2) | [EG]8 | [Fc]4 [Fd]2 [Gd]2 | [Ac]4 ([Bd]2 [Ge]2) | %10
 (f2 c2) (d2 e2) | [Af]8 | (f3 e) [Fd]2 [Fc]2 | (dcBA G2) c2 | (F2 [GB]2) [FA]2 [EG]2 | F8 |] %16
V:2
 x8 | x8 | F4 F4 | x8 | x8 | A4 F4 A2 | D4 F2 x2 | x8 | x8 | x8 | A4 G4 | x8 | A4 x4 | F4 G4 | %14
 F2 x6 | F8 |] %16
V:3
 [F,A,]4 [F,A,]2 [C,C]2 | [F,C]4 [F,F]4 | ([B,D]2 [A,C]2) ([G,B,]2 [F,A,]2) | [C,G,]8 | %4
 [F,A,]4 [F,A,]2 [F,C]2 | F4 C4 F,2 | D4 ([E,C]2 [D,=B,]2) | [C,C]8 | [F,A,]4 B,2 [G,B,]2 | %9
 (A,2 G,A,) ([G,B,]2 [C,C]2) | ([F,C]2 FE) ([B,D]2 C2) | [F,C]8 | [F,C]4 [B,D]2 [A,E]2 | D4 C4 | %14
 ([D,A,]2 ED) [F,C]2 [C,C]2 | [F,C]8 |] %16
V:4
 x8 | x8 | x8 | x8 | x8 | (A,2 B,2) (A,G,) F,2 x2 | (G,2 F,2) x4 | x8 | x4 B,2 x2 | F,4 x4 | %10
 x2 A,2 x C2 x | x8 | x8 | (B,A,G,F, E,2 C,2) | x2 E,2 x4 | x8 |] %16

